styles/1/Numix/32/actions/orange-add-folders-to-archive.svg

<?xml version="1.0" encoding="UTF-8" standalone="no"?>
<svg
   xmlns:dc="http://purl.org/dc/elements/1.1/"
   xmlns:cc="http://creativecommons.org/ns#"
   xmlns:rdf="http://www.w3.org/1999/02/22-rdf-syntax-ns#"
   xmlns:svg="http://www.w3.org/2000/svg"
   xmlns="http://www.w3.org/2000/svg"
   xmlns:sodipodi="http://sodipodi.sourceforge.net/DTD/sodipodi-0.dtd"
   xmlns:inkscape="http://www.inkscape.org/namespaces/inkscape"
   width="32"
   height="32"
   viewBox="0 0 32 32"
   id="svg2"
   version="1.1"
   inkscape:version="0.91 r"
   sodipodi:docname="orange-add-folders-to-archive.svg">
  <metadata
     id="metadata20">
    <rdf:RDF>
      <cc:Work
         rdf:about="">
        <dc:format>image/svg+xml</dc:format>
        <dc:type
           rdf:resource="http://purl.org/dc/dcmitype/StillImage" />
      </cc:Work>
    </rdf:RDF>
  </metadata>
  <defs
     id="defs18" />
  <sodipodi:namedview
     pagecolor="#ffffff"
     bordercolor="#666666"
     borderopacity="1"
     objecttolerance="10"
     gridtolerance="10"
     guidetolerance="10"
     inkscape:pageopacity="0"
     inkscape:pageshadow="2"
     inkscape:window-width="1366"
     inkscape:window-height="747"
     id="namedview16"
     showgrid="true"
     inkscape:zoom="3.6875"
     inkscape:cx="-37.700584"
     inkscape:cy="8.7620759"
     inkscape:window-x="0"
     inkscape:window-y="21"
     inkscape:window-maximized="1"
     inkscape:current-layer="svg2">
    <inkscape:grid
       type="xygrid"
       id="grid3006" />
  </sodipodi:namedview>
  <path
     style="font-size:medium;font-style:normal;font-variant:normal;font-weight:normal;font-stretch:normal;text-indent:0;text-align:start;text-decoration:none;line-height:normal;letter-spacing:normal;word-spacing:normal;text-transform:none;direction:ltr;block-progression:tb;writing-mode:lr-tb;text-anchor:start;baseline-shift:baseline;color:#000000;fill:#f57c00;fill-opacity:1;fill-rule:nonzero;stroke:none;stroke-width:2.28612947;marker:none;visibility:visible;display:inline;overflow:visible;enable-background:accumulate;font-family:Sans;-inkscape-font-specification:Sans;opacity:0.4"
     d="M 1.03125 12 C 0.46653784 12.05548 -0.0092069996 12.588893 0 13.15625 L 0 30.84375 C -0.00698 31.451042 0.54895844 32.006984 1.15625 32 L 18 32 L 18 28 L 12 28 L 12 18 L 18 18 L 18 14 L 16 14 L 16 13.15625 C 16.0069 12.559352 15.471863 12.009452 14.875 12 L 1.15625 12 C 1.114625 11.9977 1.072875 11.9977 1.03125 12 z "
     id="path3011" />
  <path
     style="font-size:medium;font-style:normal;font-variant:normal;font-weight:normal;font-stretch:normal;text-indent:0;text-align:start;text-decoration:none;line-height:normal;letter-spacing:normal;word-spacing:normal;text-transform:none;direction:ltr;block-progression:tb;writing-mode:lr-tb;text-anchor:start;baseline-shift:baseline;color:#000000;fill:#f57c00;fill-opacity:1;fill-rule:nonzero;stroke:none;stroke-width:2.28612947;marker:none;visibility:visible;display:inline;overflow:visible;enable-background:accumulate;font-family:Sans;-inkscape-font-specification:Sans"
     d="M 5.03125 0 C 4.4665378 0.055483 3.990793 0.5888935 4 1.15625 L 4 18.84375 C 3.99302 19.451042 4.5489584 20.006984 5.15625 20 L 12 20 L 12 18 L 18 18 L 18 12 L 28 12 L 28 18 L 32 18 L 32 3.15625 C 32.007 2.548958 31.451042 1.993016 30.84375 2 L 20 2 L 20 1.15625 C 20.0069 0.5593523 19.471863 0.0094527 18.875 0 L 5.15625 0 C 5.114625 -0.00228 5.072875 -0.00228 5.03125 0 z "
     id="path3912" />
  <path
     style="fill:#859900"
     d="M 32 20 L 26 20 L 26 14 L 20 14 L 20 20 L 14 20 L 14 26 L 20 26 L 20 32 L 26 32 L 26 26 L 32 26 Z "
     id="path14" />
</svg>

<svg xmlns="http://www.w3.org/2000/svg" viewBox="0 0 32 32">
 <path d="m 1.031 12 c -0.565 0.055 -1.04 0.589 -1.031 1.156 l 0 17.688 c -0.007 0.607 0.549 1.163 1.156 1.156 l 16.844 0 l 0 -4 l -6 0 l 0 -10 l 6 0 l 0 -4 l -2 0 l 0 -0.844 c 0.007 -0.597 -0.528 -1.147 -1.125 -1.156 l -13.719 0 c -0.042 -0.002 -0.083 -0.002 -0.125 0 z" style="visibility:visible;fill:#f57c00;opacity:0.4;fill-opacity:1;stroke:none;display:inline;color:#000;fill-rule:nonzero"/>
 <path d="m 5.03 0 c -0.565 0.055 -1.04 0.589 -1.031 1.156 l 0 17.688 c -0.007 0.607 0.549 1.163 1.156 1.156 l 6.844 0 l 0 -2 l 6 0 l 0 -6 l 10 0 l 0 6 l 4 0 l 0 -14.844 c 0.007 -0.607 -0.549 -1.163 -1.156 -1.156 l -10.844 0 l 0 -0.844 c 0.007 -0.597 -0.528 -1.147 -1.125 -1.156 l -13.719 0 c -0.042 -0.002 -0.083 -0.002 -0.125 0 z" style="visibility:visible;fill:#f57c00;fill-opacity:1;stroke:none;display:inline;color:#000;fill-rule:nonzero"/>
 <path d="m 32 20 l -6 0 l 0 -6 l -6 0 l 0 6 l -6 0 l 0 6 l 6 0 l 0 6 l 6 0 l 0 -6 l 6 0 Z" style="fill:#859900"/>
</svg>
